X:18194
T:Valse  Bouffard - Valse/Walzer/Waltz
C:Patrick Bouffard
Z:abc transcription Simon Wascher
N:please mail errors to simon.wascher@chello.at
M:3/4
L:1/4
K:D
F2E|D2F|A3|A3|
B2c|dcB|ABA|GFE|
F2E|D2F|A3|A3|
B2c|dec|d3|d3:|
|:FAd|FAd|GBd|GBd|
Ace|Ace|d>cd/e/|f2d|
FAd|FAd|GBd|GBd|
Ace|Ace|dc/d/e/^c/|d3:|
